Flat-Remix-Dark/panel/indicator-keyboard-Br.svg

<svg xmlns="http://www.w3.org/2000/svg" width="22" height="22" version="1.1">
 <defs>
  <style id="current-color-scheme" type="text/css">
   .ColorScheme-Text { color:#d3dae3; } .ColorScheme-Highlight { color:#5294e2; }
  </style>
 </defs>
 <rect style="opacity:0" width="22" height="22" x="0" y="0"/>
 <path style="fill:none;stroke:currentColor;stroke-width:1.99999976;stroke-linecap:round;stroke-linejoin:bevel" class="ColorScheme-Text" d="m 4.968257,10.988609 c 0,0 1.9999845,0.02271 2.9999844,0.02268 0.4072187,-2.5e-5 0.7411891,3.46e-4 1.0000009,3.46e-4 0.9999996,0 0.9999996,0 0.9999996,1 0,0.2561 0,0.574013 10e-7,0.977183 0,0.401652 -10e-7,0.758148 -10e-7,1.022817 0,0.999999 0,0.999999 -0.9999996,0.999999 -0.2542904,0 -0.6067264,-2.44e-4 -1.0000176,-2.44e-4 -0.9999998,0 -2.9999832,-0.02268 -2.9999832,-0.02268 m 1.137e-4,-8.000098 0,8 m -9.82e-5,-3.977325 1.9999845,-4e-6 c 2.0000001,0 2.0000001,0 2.0000178,-1.9999929 l -1.7e-5,-0.9996577 c 0,-1 0,-1 -0.9999998,-1 -0.2575597,0 -0.5967466,-3.479e-4 -1.000001,-3.471e-4 l -1.9999845,3.8e-6 m 9.82e-5,8.0000989 0,-8.0000007"/>
 <path style="fill:none;stroke:currentColor;stroke-width:1.99999976;stroke-linecap:round" class="ColorScheme-Text" d="m 18.00315,14.999823 -2.000001,-3 m -2.000002,-1.000002 1.999983,-4e-6 c 0.423836,-1e-6 0.729048,4.54e-4 1.00001,4.54e-4 0.999998,0 0.999998,0 0.999998,-1 0,-0.2567203 1.5e-5,-0.5997725 1.2e-5,-1.0004477 l -1.2e-5,-0.9995519 c 0,-1 0,-1 -0.999998,-1 -0.224504,0 -0.544112,0.00944 -0.874519,0.00719 -1.12549,-0.00765 -2.125474,-0.00756 -2.125474,-0.00756 M 14.003246,15 l 0,-8.0000003"/>
</svg>

<svg xmlns="http://www.w3.org/2000/svg" width="12pt" height="12pt" version="1.1" viewBox="0 0 12 12">
 <g>
  <path style="fill:none;stroke-width:2;stroke-linecap:round;stroke-linejoin:bevel;stroke:rgb(82.745098%,85.490196%,89.019608%)" d="M 4.96875 10.992188 C 4.96875 10.992188 6.96875 11.007812 7.96875 11.007812 C 8.375 11.007812 8.710938 11.007812 8.96875 11.007812 C 9.96875 11.007812 9.96875 11.007812 9.96875 12.007812 C 9.96875 12.265625 9.96875 12.585938 9.96875 12.992188 C 9.96875 13.390625 9.96875 13.75 9.96875 14.007812 C 9.96875 15.007812 9.96875 15.007812 8.96875 15.007812 C 8.710938 15.007812 8.359375 15.007812 7.96875 15.007812 C 6.96875 15.007812 4.96875 14.992188 4.96875 14.992188 M 4.96875 6.992188 L 4.96875 14.992188 M 4.96875 11.007812 L 6.96875 11.007812 C 8.96875 11.007812 8.96875 11.007812 8.96875 9.007812 L 8.96875 8.007812 C 8.96875 7.007812 8.96875 7.007812 7.96875 7.007812 C 7.710938 7.007812 7.375 7.007812 6.96875 7.007812 L 4.96875 7.007812 M 4.96875 15.007812 L 4.96875 7.007812" transform="matrix(0.5,0,0,0.5,0.5,0.5)"/>
  <path style="fill:none;stroke-width:2;stroke-linecap:round;stroke:rgb(82.745098%,85.490196%,89.019608%)" d="M 18 15 L 16 12 M 14 11 L 16 11 C 16.429688 11 16.734375 11 17 11 C 18 11 18 11 18 10 C 18 9.742188 18 9.398438 18 9 L 18 8 C 18 7 18 7 17 7 C 16.78125 7 16.460938 7.007812 16.125 7.007812 C 15 7 14 7 14 7 M 14 15 L 14 7" transform="matrix(0.5,0,0,0.5,0.5,0.5)"/>
 </g>
</svg>
